miniprogram/assets/figma/home-gps.svg

<svg width="20" height="20" viewBox="0 0 20 20" fill="none" xmlns="http://www.w3.org/2000/svg">
<g clip-path="url(#clip0_10_4599)">
<path d="M18.3333 9.37508H16.6333C16.3333 6.20008 13.8 3.65841 10.625 3.36675V1.66675C10.625 1.32508 10.3416 1.04175 9.99996 1.04175C9.65829 1.04175 9.37496 1.32508 9.37496 1.66675V3.36675C6.19996 3.66675 3.65829 6.20008 3.36663 9.37508H1.66663C1.32496 9.37508 1.04163 9.65841 1.04163 10.0001C1.04163 10.3417 1.32496 10.6251 1.66663 10.6251H3.36663C3.66663 13.8001 6.19996 16.3417 9.37496 16.6334V18.3334C9.37496 18.6751 9.65829 18.9584 9.99996 18.9584C10.3416 18.9584 10.625 18.6751 10.625 18.3334V16.6334C13.8 16.3334 16.3416 13.8001 16.6333 10.6251H18.3333C18.675 10.6251 18.9583 10.3417 18.9583 10.0001C18.9583 9.65841 18.675 9.37508 18.3333 9.37508ZM9.99996 12.6001C8.56663 12.6001 7.39996 11.4334 7.39996 10.0001C7.39996 8.56675 8.56663 7.40008 9.99996 7.40008C11.4333 7.40008 12.6 8.56675 12.6 10.0001C12.6 11.4334 11.4333 12.6001 9.99996 12.6001Z" fill="#292D32"/>
</g>
<defs>
<clipPath id="clip0_10_4599">
<rect width="20" height="20" fill="white"/>
</clipPath>
</defs>
</svg>

<svg xmlns="http://www.w3.org/2000/svg" width="20" height="20" fill="none" viewBox="0 0 20 20"><g clip-path="url(#a)"><path fill="#292d32" d="M18.333 9.375h-1.7c-.3-3.175-2.833-5.717-6.008-6.008v-1.7A.63.63 0 0 0 10 1.042a.63.63 0 0 0-.625.625v1.7C6.2 3.667 3.658 6.2 3.367 9.375h-1.7a.63.63 0 0 0-.625.625.63.63 0 0 0 .625.625h1.7c.3 3.175 2.833 5.717 6.008 6.008v1.7a.63.63 0 0 0 .625.625.63.63 0 0 0 .625-.625v-1.7c3.175-.3 5.717-2.833 6.008-6.008h1.7a.63.63 0 0 0 .625-.625.63.63 0 0 0-.625-.625M10 12.6A2.603 2.603 0 0 1 7.4 10c0-1.433 1.167-2.6 2.6-2.6s2.6 1.167 2.6 2.6-1.167 2.6-2.6 2.6"/></g><defs><clipPath id="a"><path fill="#fff" d="M0 0h20v20H0z"/></clipPath></defs></svg>
